dist/media/image/portfolio/hand.svg

<?xml version="1.0" encoding="UTF-8" standalone="no"?>
<svg width="16px" height="17px" viewBox="0 0 16 17" version="1.1" xmlns="http://www.w3.org/2000/svg" xmlns:xlink="http://www.w3.org/1999/xlink">
    <!-- Generator: Sketch 3.6.1 (26313) - http://www.bohemiancoding.com/sketch -->
    <title>openhand</title>
    <desc>Created with Sketch.</desc>
    <defs></defs>
    <g id="bundle-os-x-cursors" stroke="none" stroke-width="1" fill="none" fill-rule="evenodd">
        <g id="Made-with-💕by-Azendoo-design-team---@azendoo" transform="translate(-249.000000, -93.000000)">
            <g id="openhand" transform="translate(249.000000, 93.000000)">
                <g id="cursor">
                    <path d="M4.5557,8.5742 C4.4577,8.1992 4.3597,7.7272 4.1497,7.0222 C3.9827,6.4652 3.8077,6.1632 3.6797,5.7892 C3.5247,5.3342 3.3767,5.0682 3.1837,4.6082 C3.0447,4.2792 2.8197,3.5602 2.7267,3.1682 C2.6077,2.6592 2.7597,2.2442 2.9707,1.9622 C3.2237,1.6232 3.9327,1.4722 4.3277,1.6112 C4.6987,1.7412 5.0717,2.1232 5.2437,2.3992 C5.5317,2.8592 5.6007,3.0312 5.9607,3.9412 C6.3537,4.9332 6.5247,5.8592 6.5717,6.1722 L6.6567,6.6242 C6.6557,6.5842 6.6137,5.5022 6.6127,5.4622 C6.5777,4.4332 6.5527,3.6392 6.5747,2.5232 C6.5767,2.3972 6.6387,1.9362 6.6587,1.8082 C6.7367,1.3082 6.9637,1.0082 7.3317,0.8292 C7.7437,0.6282 8.2577,0.6142 8.7327,0.8122 C9.1557,0.9852 9.3587,1.3622 9.4197,1.8342 C9.4337,1.9432 9.5137,2.8212 9.5127,2.9412 C9.4997,3.9662 9.5187,4.5822 9.5277,5.1152 C9.5317,5.3462 9.5307,6.7402 9.5447,6.5842 C9.6057,5.9282 9.6387,3.3952 9.8887,2.6422 C10.0327,2.2092 10.2937,1.8962 10.6827,1.7132 C11.1137,1.5102 11.7957,1.6432 12.0867,1.9562 C12.3717,2.2612 12.5327,2.6482 12.5687,3.1092 C12.6007,3.5142 12.5497,4.0062 12.5487,4.3542 C12.5487,5.2212 12.5277,5.6782 12.5117,6.4752 C12.5107,6.5132 12.4967,6.7732 12.5347,6.6572 C12.6287,6.3772 12.7227,6.1152 12.8007,5.9122 C12.8497,5.7872 13.0417,5.2982 13.1597,5.0532 C13.2737,4.8192 13.3707,4.6842 13.5747,4.3652 C13.7747,4.0522 13.9897,3.9172 14.2427,3.8042 C14.7827,3.5692 15.3517,3.9162 15.5437,4.3952 C15.6297,4.6102 15.5527,5.1082 15.5157,5.5002 C15.4547,6.1472 15.2617,6.8062 15.1637,7.1482 C15.0357,7.5952 14.8897,8.3832 14.8237,8.7492 C14.7517,9.1432 14.5897,10.1312 14.4647,10.5692 C14.3787,10.8702 14.0937,11.5472 13.8127,11.9532 C13.8127,11.9532 12.7387,13.2032 12.6207,13.7652 C12.5037,14.3282 12.5427,14.3322 12.5197,14.7302 C12.4957,15.1292 12.6407,15.6532 12.6407,15.6532 C12.6407,15.6532 11.8387,15.7572 11.4067,15.6872 C11.0157,15.6252 10.5317,14.8462 10.4067,14.6092 C10.2347,14.2812 9.8677,14.3442 9.7247,14.5862 C9.4997,14.9692 9.0157,15.6562 8.6737,15.6992 C8.0057,15.7832 6.6197,15.7292 5.5347,15.7192 C5.5347,15.7192 5.7197,14.7082 5.3077,14.3612 C5.0027,14.1012 4.4777,13.5772 4.1637,13.3012 L3.3317,12.3802 C3.0477,12.0202 2.7027,11.2872 2.0887,10.3952 C1.7407,9.8912 1.0617,9.3102 0.8047,8.8162 C0.5817,8.3912 0.4737,7.8622 0.6147,7.4912 C0.8397,6.8972 1.2897,6.5942 1.9767,6.6592 C2.4957,6.7092 2.8247,6.8652 3.2147,7.1962 C3.4397,7.3862 3.7877,7.7302 3.9647,7.9442 C4.1277,8.1392 4.1677,8.2202 4.3417,8.4532 C4.5717,8.7602 4.6437,8.9122 4.5557,8.5742" fill="#FFFFFF"></path>
                    <path d="M4.5557,8.5742 C4.4577,8.1992 4.3597,7.7272 4.1497,7.0222 C3.9827,6.4652 3.8077,6.1632 3.6797,5.7892 C3.5247,5.3342 3.3767,5.0682 3.1837,4.6082 C3.0447,4.2792 2.8197,3.5602 2.7267,3.1682 C2.6077,2.6592 2.7597,2.2442 2.9707,1.9622 C3.2237,1.6232 3.9327,1.4722 4.3277,1.6112 C4.6987,1.7412 5.0717,2.1232 5.2437,2.3992 C5.5317,2.8592 5.6007,3.0312 5.9607,3.9412 C6.3537,4.9332 6.5247,5.8592 6.5717,6.1722 L6.6567,6.6242 C6.6557,6.5842 6.6137,5.5022 6.6127,5.4622 C6.5777,4.4332 6.5527,3.6392 6.5747,2.5232 C6.5767,2.3972 6.6387,1.9362 6.6587,1.8082 C6.7367,1.3082 6.9637,1.0082 7.3317,0.8292 C7.7437,0.6282 8.2577,0.6142 8.7327,0.8122 C9.1557,0.9852 9.3587,1.3622 9.4197,1.8342 C9.4337,1.9432 9.5137,2.8212 9.5127,2.9412 C9.4997,3.9662 9.5187,4.5822 9.5277,5.1152 C9.5317,5.3462 9.5307,6.7402 9.5447,6.5842 C9.6057,5.9282 9.6387,3.3952 9.8887,2.6422 C10.0327,2.2092 10.2937,1.8962 10.6827,1.7132 C11.1137,1.5102 11.7957,1.6432 12.0867,1.9562 C12.3717,2.2612 12.5327,2.6482 12.5687,3.1092 C12.6007,3.5142 12.5497,4.0062 12.5487,4.3542 C12.5487,5.2212 12.5277,5.6782 12.5117,6.4752 C12.5107,6.5132 12.4967,6.7732 12.5347,6.6572 C12.6287,6.3772 12.7227,6.1152 12.8007,5.9122 C12.8497,5.7872 13.0417,5.2982 13.1597,5.0532 C13.2737,4.8192 13.3707,4.6842 13.5747,4.3652 C13.7747,4.0522 13.9897,3.9172 14.2427,3.8042 C14.7827,3.5692 15.3517,3.9162 15.5437,4.3952 C15.6297,4.6102 15.5527,5.1082 15.5157,5.5002 C15.4547,6.1472 15.2617,6.8062 15.1637,7.1482 C15.0357,7.5952 14.8897,8.3832 14.8237,8.7492 C14.7517,9.1432 14.5897,10.1312 14.4647,10.5692 C14.3787,10.8702 14.0937,11.5472 13.8127,11.9532 C13.8127,11.9532 12.7387,13.2032 12.6207,13.7652 C12.5037,14.3282 12.5427,14.3322 12.5197,14.7302 C12.4957,15.1292 12.6407,15.6532 12.6407,15.6532 C12.6407,15.6532 11.8387,15.7572 11.4067,15.6872 C11.0157,15.6252 10.5317,14.8462 10.4067,14.6092 C10.2347,14.2812 9.8677,14.3442 9.7247,14.5862 C9.4997,14.9692 9.0157,15.6562 8.6737,15.6992 C8.0057,15.7832 6.6197,15.7292 5.5347,15.7192 C5.5347,15.7192 5.7197,14.7082 5.3077,14.3612 C5.0027,14.1012 4.4777,13.5772 4.1637,13.3012 L3.3317,12.3802 C3.0477,12.0202 2.7027,11.2872 2.0887,10.3952 C1.7407,9.8912 1.0617,9.3102 0.8047,8.8162 C0.5817,8.3912 0.4737,7.8622 0.6147,7.4912 C0.8397,6.8972 1.2897,6.5942 1.9767,6.6592 C2.4957,6.7092 2.8247,6.8652 3.2147,7.1962 C3.4397,7.3862 3.7877,7.7302 3.9647,7.9442 C4.1277,8.1392 4.1677,8.2202 4.3417,8.4532 C4.5717,8.7602 4.6437,8.9122 4.5557,8.5742" stroke="#000000" stroke-width="0.75" stroke-linecap="round" stroke-linejoin="round"></path>
                </g>
                <path d="M11.5664,12.7344 L11.5664,9.2754" id="cursor" stroke="#000000" stroke-width="0.75" stroke-linecap="round"></path>
                <path d="M9.5508,12.7461 L9.5348,9.2731" id="cursor" stroke="#000000" stroke-width="0.75" stroke-linecap="round"></path>
                <path d="M7.5547,9.3047 L7.5757,12.7307" id="cursor" stroke="#000000" stroke-width="0.75" stroke-linecap="round"></path>
            </g>
        </g>
    </g>
</svg>

<svg width="16" height="17" xmlns="http://www.w3.org/2000/svg"><g fill="none" fill-rule="evenodd"><path d="M4.556 8.574c-.098-.375-.196-.847-.406-1.552-.167-.557-.342-.859-.47-1.233-.155-.455-.303-.72-.496-1.18a12.1 12.1 0 01-.457-1.44 1.427 1.427 0 01.244-1.207c.253-.339.962-.49 1.357-.35.37.13.744.511.916.787.288.46.357.632.717 1.542.393.992.564 1.918.61 2.231l.086.452-.044-1.162a49.535 49.535 0 01-.038-2.939c.002-.126.064-.587.084-.715.078-.5.305-.8.673-.979a1.71 1.71 0 011.4-.017c.424.173.627.55.688 1.022.014.11.094.987.093 1.107-.013 1.025.006 1.641.015 2.174.004.231.003 1.625.017 1.47.06-.657.094-3.19.344-3.943.144-.433.405-.746.794-.929.43-.203 1.113-.07 1.404.243.285.305.446.692.482 1.153.032.405-.02.897-.02 1.245 0 .867-.021 1.324-.037 2.121-.001.038-.015.298.023.182a16.413 16.413 0 01.625-1.604c.114-.234.21-.369.415-.688.2-.313.415-.448.668-.56.54-.236 1.109.111 1.3.59.087.215.01.713-.027 1.105-.061.647-.254 1.306-.352 1.648-.128.447-.274 1.235-.34 1.601-.072.394-.234 1.382-.36 1.82-.085.301-.37.978-.651 1.384 0 0-1.074 1.25-1.192 1.812-.117.563-.078.567-.101.965-.024.4.12.923.12.923s-.801.104-1.233.034c-.391-.062-.875-.84-1-1.078-.172-.328-.54-.265-.682-.023-.225.383-.71 1.07-1.051 1.113-.668.084-2.054.03-3.14.02 0 0 .186-1.01-.226-1.358-.305-.26-.83-.784-1.144-1.06l-.832-.92c-.284-.36-.63-1.094-1.243-1.986C1.74 9.891 1.062 9.31.805 8.816c-.223-.425-.331-.954-.19-1.325.225-.594.675-.897 1.362-.832.519.05.848.206 1.238.537.225.19.573.534.75.748.163.195.203.276.377.51.23.306.302.458.214.12" fill="#FFF"/><path d="M4.556 8.574c-.098-.375-.196-.847-.406-1.552-.167-.557-.342-.859-.47-1.233-.155-.455-.303-.72-.496-1.18a12.1 12.1 0 01-.457-1.44 1.427 1.427 0 01.244-1.207c.253-.339.962-.49 1.357-.35.37.13.744.511.916.787.288.46.357.632.717 1.542.393.992.564 1.918.61 2.231l.086.452-.044-1.162a49.535 49.535 0 01-.038-2.939c.002-.126.064-.587.084-.715.078-.5.305-.8.673-.979a1.71 1.71 0 011.4-.017c.424.173.627.55.688 1.022.014.11.094.987.093 1.107-.013 1.025.006 1.641.015 2.174.004.231.003 1.625.017 1.47.06-.657.094-3.19.344-3.943.144-.433.405-.746.794-.929.43-.203 1.113-.07 1.404.243.285.305.446.692.482 1.153.032.405-.02.897-.02 1.245 0 .867-.021 1.324-.037 2.121-.001.038-.015.298.023.182a16.413 16.413 0 01.625-1.604c.114-.234.21-.369.415-.688.2-.313.415-.448.668-.56.54-.236 1.109.111 1.3.59.087.215.01.713-.027 1.105-.061.647-.254 1.306-.352 1.648-.128.447-.274 1.235-.34 1.601-.072.394-.234 1.382-.36 1.82-.085.301-.37.978-.651 1.384 0 0-1.074 1.25-1.192 1.812-.117.563-.078.567-.101.965-.024.4.12.923.12.923s-.801.104-1.233.034c-.391-.062-.875-.84-1-1.078-.172-.328-.54-.265-.682-.023-.225.383-.71 1.07-1.051 1.113-.668.084-2.054.03-3.14.02 0 0 .186-1.01-.226-1.358-.305-.26-.83-.784-1.144-1.06l-.832-.92c-.284-.36-.63-1.094-1.243-1.986C1.74 9.891 1.062 9.31.805 8.816c-.223-.425-.331-.954-.19-1.325.225-.594.675-.897 1.362-.832.519.05.848.206 1.238.537.225.19.573.534.75.748.163.195.203.276.377.51.23.306.302.458.214.12" stroke="#000" stroke-width=".75" stroke-linecap="round" stroke-linejoin="round"/><path d="M11.566 12.734V9.275M9.55 12.746l-.015-3.473m-1.98.032l.02 3.426" stroke="#000" stroke-width=".75" stroke-linecap="round"/></g></svg>
